resources/haticons/SVG/settings_overscan.svg

<!-- Generated by IcoMoon.io -->
<svg version="1.1" xmlns="http://www.w3.org/2000/svg" width="24" height="24" viewBox="0 0 24 24">
<title>settings_overscan</title>
<path d="M21 19.031v-14.063h-18v14.063h18zM21 3q0.797 0 1.406 0.609t0.609 1.406v13.969q0 0.797-0.609 1.406t-1.406 0.609h-18q-0.797 0-1.406-0.609t-0.609-1.406v-13.969q0-0.797 0.609-1.406t1.406-0.609h18zM14.016 15.984l-2.016 2.531-2.016-2.531h4.031zM6 9.984v4.031l-2.484-2.016zM18 9.984l2.484 2.016-2.484 2.016v-4.031zM12 5.484l2.016 2.531h-4.031z"></path>
</svg>

<svg xmlns="http://www.w3.org/2000/svg" width="24" height="24"><path d="M21 19.031V4.968H3v14.063h18zM21 3q.797 0 1.406.609t.609 1.406v13.969q0 .797-.609 1.406T21 20.999H3q-.797 0-1.406-.609t-.609-1.406V5.015q0-.797.609-1.406T3 3h18zm-6.984 12.984L12 18.515l-2.016-2.531h4.031zM6 9.984v4.031l-2.484-2.016zm12 0L20.484 12 18 14.016V9.985zm-6-4.5l2.016 2.531H9.985z"/></svg>
